Numix/48/notifications/notification-touchpad-disabled-symbolic.svg

<?xml version="1.0" encoding="UTF-8" standalone="no"?>
<svg
   xmlns:dc="http://purl.org/dc/elements/1.1/"
   xmlns:cc="http://creativecommons.org/ns#"
   xmlns:rdf="http://www.w3.org/1999/02/22-rdf-syntax-ns#"
   xmlns:svg="http://www.w3.org/2000/svg"
   xmlns="http://www.w3.org/2000/svg"
   xmlns:sodipodi="http://sodipodi.sourceforge.net/DTD/sodipodi-0.dtd"
   xmlns:inkscape="http://www.inkscape.org/namespaces/inkscape"
   width="48"
   viewBox="0 0 48 48"
   height="48"
   id="svg2"
   version="1.1"
   inkscape:version="0.91 r"
   sodipodi:docname="notification-touchpad-disabled-symbolic.svg">
  <metadata
     id="metadata30">
    <rdf:RDF>
      <cc:Work
         rdf:about="">
        <dc:format>image/svg+xml</dc:format>
        <dc:type
           rdf:resource="http://purl.org/dc/dcmitype/StillImage" />
        <dc:title></dc:title>
      </cc:Work>
    </rdf:RDF>
  </metadata>
  <defs
     id="defs28">
    <clipPath
       id="clipPath6">
      <rect
         style="color:#bebebe;fill:#bebebe"
         id="rect8"
         x="26.85"
         y="220.75"
         width="3.825"
         height="6.375" />
    </clipPath>
    <clipPath
       id="clipPath10">
      <rect
         style="color:#bebebe;fill:#bebebe"
         id="rect12"
         x="26.966"
         y="221.33"
         width="2.898"
         height="5.2160001" />
    </clipPath>
    <clipPath
       id="clipPath14">
      <rect
         style="color:#bebebe;fill:#bebebe"
         id="rect16"
         x="26.999001"
         y="221.5"
         width="1.876"
         height="4.8740001" />
    </clipPath>
    <clipPath
       id="clipPath3077">
      <rect
         style="color:#bebebe;fill:#bebebe"
         height="4.8740001"
         width="1.876"
         y="221.5"
         x="26.999001"
         id="rect3079" />
    </clipPath>
    <clipPath
       id="clipPath3073">
      <rect
         style="color:#bebebe;fill:#bebebe"
         height="5.2160001"
         width="2.898"
         y="221.33"
         x="26.966"
         id="rect3075" />
    </clipPath>
    <clipPath
       id="clipPath3069">
      <rect
         style="color:#bebebe;fill:#bebebe"
         height="6.375"
         width="3.825"
         y="220.75"
         x="26.85"
         id="rect3071" />
    </clipPath>
    <clipPath
       id="clipPath6-5">
      <rect
         style="color:#bebebe;fill:#bebebe"
         id="rect8-3"
         x="26.85"
         y="220.75"
         width="3.825"
         height="6.375" />
    </clipPath>
    <clipPath
       id="clipPath10-4">
      <rect
         style="color:#bebebe;fill:#bebebe"
         id="rect12-2"
         x="26.966"
         y="221.33"
         width="2.898"
         height="5.2160001" />
    </clipPath>
    <clipPath
       id="clipPath14-9">
      <rect
         style="color:#bebebe;fill:#bebebe"
         id="rect16-4"
         x="26.999001"
         y="221.5"
         width="1.876"
         height="4.8740001" />
    </clipPath>
    <clipPath
       id="clipPath6-9">
      <rect
         style="color:#bebebe;fill:#bebebe"
         id="rect8-9"
         x="26.85"
         y="220.75"
         width="3.825"
         height="6.375" />
    </clipPath>
    <clipPath
       id="clipPath10-8">
      <rect
         style="color:#bebebe;fill:#bebebe"
         id="rect12-3"
         x="26.966"
         y="221.33"
         width="2.898"
         height="5.2160001" />
    </clipPath>
    <clipPath
       id="clipPath14-6">
      <rect
         style="color:#bebebe;fill:#bebebe"
         id="rect16-0"
         x="26.999001"
         y="221.5"
         width="1.876"
         height="4.8740001" />
    </clipPath>
    <clipPath
       id="clipPath3077-7">
      <rect
         style="color:#bebebe;fill:#bebebe"
         height="4.8740001"
         width="1.876"
         y="221.5"
         x="26.999001"
         id="rect3079-7" />
    </clipPath>
    <clipPath
       id="clipPath3073-1">
      <rect
         style="color:#bebebe;fill:#bebebe"
         height="5.2160001"
         width="2.898"
         y="221.33"
         x="26.966"
         id="rect3075-9" />
    </clipPath>
    <clipPath
       id="clipPath3069-1">
      <rect
         style="color:#bebebe;fill:#bebebe"
         height="6.375"
         width="3.825"
         y="220.75"
         x="26.85"
         id="rect3071-9" />
    </clipPath>
  </defs>
  <sodipodi:namedview
     pagecolor="#515151"
     bordercolor="#bababa"
     borderopacity="1"
     objecttolerance="10"
     gridtolerance="10"
     guidetolerance="10"
     inkscape:pageopacity="0"
     inkscape:pageshadow="2"
     inkscape:window-width="1920"
     inkscape:window-height="1056"
     id="namedview26"
     showgrid="true"
     inkscape:zoom="10.727273"
     inkscape:cx="24.660485"
     inkscape:cy="12.704348"
     inkscape:window-x="0"
     inkscape:window-y="24"
     inkscape:window-maximized="1"
     inkscape:current-layer="svg2">
    <inkscape:grid
       type="xygrid"
       id="grid4241" />
  </sodipodi:namedview>
  <path
     style="color:#000000;font-style:normal;font-variant:normal;font-weight:normal;font-stretch:normal;font-size:medium;line-height:normal;font-family:sans-serif;text-indent:0;text-align:start;text-decoration:none;text-decoration-line:none;text-decoration-style:solid;text-decoration-color:#000000;letter-spacing:normal;word-spacing:normal;text-transform:none;direction:ltr;block-progression:tb;writing-mode:lr-tb;baseline-shift:baseline;text-anchor:start;white-space:normal;clip-rule:nonzero;display:inline;overflow:visible;visibility:visible;opacity:0.5;isolation:auto;mix-blend-mode:normal;color-interpolation:sRGB;color-interpolation-filters:linearRGB;solid-color:#000000;solid-opacity:1;fill:#ececec;fill-opacity:1;fill-rule:nonzero;stroke:none;stroke-width:3;stroke-linecap:butt;stroke-linejoin:miter;stroke-miterlimit:4;stroke-dasharray:none;stroke-dashoffset:0;stroke-opacity:1;color-rendering:auto;image-rendering:auto;shape-rendering:auto;text-rendering:auto;enable-background:accumulate"
     d="M 9.5,6 C 7.5869458,6 6,7.5869458 6,9.5 l 0,29 C 6,40.413054 7.5869458,42 9.5,42 l 29,0 c 1.913054,0 3.5,-1.586946 3.5,-3.5 l 0,-29 C 42,7.5869458 40.413054,6 38.5,6 Z m 0,3 29,0 C 38.802946,9 39,9.1970542 39,9.5 L 39,30 9,30 9,9.5 C 9,9.1970542 9.1970542,9 9.5,9 Z M 9,33 23,33 23,39 9.5,39 C 9.1970542,39 9,38.802946 9,38.5 Z m 16,0 14,0 0,5.5 C 39,38.802946 38.802946,39 38.5,39 L 25,39 Z"
     id="rect4165"
     inkscape:connector-curvature="0"
     sodipodi:nodetypes="ssssssssssssccsscccsscccsscc" />
  <path
     id="path4151"
     d="m 24.012032,45.991359 c 3.084125,-0.09817 3.157703,0.0061 4.708962,-1.570811 1.109794,-1.110613 5.128966,-5.178769 6.238761,-6.289382 2.219588,2.221225 4.098881,4.068156 6.318469,6.289382 1.588049,1.576946 1.542063,1.610695 4.708962,1.570811 -0.02759,-3.101739 0.0184,-3.135487 -1.569654,-4.712434 -2.219588,-2.221226 -4.098881,-4.068156 -6.31847,-6.289381 1.753598,-1.80398 4.098882,-4.055884 6.31847,-6.27711 1.588049,-1.564676 1.621771,-1.497179 1.569654,-4.712434 -3.08719,0.07363 -3.120913,0.0061 -4.708962,1.570811 -2.219588,2.221226 -4.880642,4.838223 -6.318469,6.27711 -2.219589,-2.221226 -4.019173,-4.055884 -6.238761,-6.27711 C 27.169735,24.006136 27.129879,24.098176 24.012032,24 c -0.02146,3.239799 0.0184,3.147758 1.569654,4.712434 1.109794,1.110613 5.128966,5.166497 6.238761,6.27711 -2.219589,2.221225 -4.019172,4.068155 -6.238761,6.289381 -1.551259,1.576947 -1.624837,1.472635 -1.569654,4.712434 z"
     style="fill:#ef555c;fill-opacity:1;fill-rule:evenodd"
     inkscape:connector-curvature="0" />
</svg>

<svg xmlns="http://www.w3.org/2000/svg" viewBox="0 0 48 48">
 <path d="m 9.5 6 c -1.913 0 -3.5 1.587 -3.5 3.5 l 0 29 c 0 1.913 1.587 3.5 3.5 3.5 l 29 0 c 1.913 0 3.5 -1.587 3.5 -3.5 l 0 -29 c 0 -1.913 -1.587 -3.5 -3.5 -3.5 m -29 3 29 0 c 0.303 0 0.5 0.197 0.5 0.5 l 0 20.5 -30 0 0 -20.5 c 0 -0.303 0.197 -0.5 0.5 -0.5 m -0.5 24 14 0 0 6 -13.5 0 c -0.303 0 -0.5 -0.197 -0.5 -0.5 m 16 -5.5 14 0 0 5.5 c 0 0.303 -0.197 0.5 -0.5 0.5 l -13.5 0" mix-blend-mode="normal" isolation="auto" white-space="normal" solid-opacity="1" solid-color="#000000" style="visibility:visible;shape-rendering:auto;color-interpolation-filters:linearRGB;fill:#ececec;opacity:0.5;image-rendering:auto;fill-opacity:1;stroke:none;display:inline;color:#000;fill-rule:nonzero;color-rendering:auto;color-interpolation:sRGB"/>
 <path d="m 24.01 45.991 c 3.084 -0.098 3.158 0.006 4.709 -1.571 1.11 -1.111 5.129 -5.179 6.239 -6.289 2.22 2.221 4.099 4.068 6.318 6.289 1.588 1.577 1.542 1.611 4.709 1.571 -0.028 -3.102 0.018 -3.135 -1.57 -4.712 -2.22 -2.221 -4.099 -4.068 -6.318 -6.289 1.754 -1.804 4.099 -4.056 6.318 -6.277 1.588 -1.565 1.622 -1.497 1.57 -4.712 -3.087 0.074 -3.121 0.006 -4.709 1.571 -2.22 2.221 -4.881 4.838 -6.318 6.277 -2.22 -2.221 -4.02 -4.056 -6.239 -6.277 c -1.551 -1.565 -1.591 -1.473 -4.709 -1.571 c -0.021 3.24 0.018 3.148 1.57 4.712 1.11 1.111 5.129 5.166 6.239 6.277 -2.22 2.221 -4.02 4.068 -6.239 6.289 -1.551 1.577 -1.625 1.473 -1.57 4.712 z" style="fill:#ef555c;fill-opacity:1;fill-rule:evenodd"/>
</svg>
